public/avatar/item0/68.svg

<svg xmlns:xlink="http://www.w3.org/1999/xlink" height="58.65" width="49.15" xmlns="http://www.w3.org/2000/svg"><use height="14.2" transform="translate(8.9 14.7)" width="30.1" xlink:href="#a"/><defs><use height="5.35" width="3.8" xlink:href="#b" id="h"/><use height="5.35" width="3.8" xlink:href="#c" id="b"/><use height="11.4" width="5.6" xlink:href="#d" id="i"/><use height="11.25" width="13.45" xlink:href="#e" id="j"/><use height="9.15" width="3.45" xlink:href="#f" id="k"/><use height="3.7" width="2.25" xlink:href="#g" id="l"/><path d="m1.35-.2.3.9q.35.8.2 1.15l-.2.35-.3.45h-.4q-4-.05-2.4-5.25 1.4-.3 1.9.6l.9 1.8" fill-rule="evenodd" transform="translate(1.9 2.7)" id="c"/><path d="m2.6.35.2.6q-.25 4.7-.45 4.75-.4 0-1-.4l-.6-.65-.55-.6-1.3-1.4-.8-.4-.6.05q-1.15-3.15 2-8Q1.05-3.6 2.6.35" fill-rule="evenodd" transform="translate(2.8 5.7)" id="d"/><path d="m-.65-4.55.25.5L1.75.65 1.5 4.6Q-.65 1.4-1.65 1.3l-.05.05Q.35-.55-.65-4.55" fill="#282828" fill-rule="evenodd" transform="translate(1.7 4.55)" id="f"/><g id="a" transform="translate(14.85 7.1)"><use height="5.35" transform="translate(11.45 -3.9)" width="3.8" xlink:href="#h"/><use height="11.4" transform="translate(9.65 -4.3)" width="5.6" xlink:href="#i"/><use height="11.25" transform="translate(-.05 -7.1)" width="13.45" xlink:href="#j"/><use height="9.15" transform="translate(10.95 -3.25)" width="3.45" xlink:href="#k"/><use height="3.7" transform="translate(12 -2.9)" width="2.25" xlink:href="#l"/><use height="5.35" transform="matrix(-1 0 0 1 -11.05 -3.9)" width="3.8" xlink:href="#h"/><use height="11.4" transform="matrix(-1 0 0 1 -9.25 -4.3)" width="5.6" xlink:href="#i"/><use height="11.25" transform="matrix(-1 0 0 1 .45 -7.1)" width="13.45" xlink:href="#j"/><use height="9.15" transform="matrix(-1 0 0 1 -10.55 -3.25)" width="3.45" xlink:href="#k"/><use height="3.7" transform="matrix(-1 0 0 1 -11.6 -2.9)" width="2.25" xlink:href="#l"/></g><g id="e" fill-rule="evenodd"><path d="M4.55-3.9Q3.2-5.6.35-5.7H-1.1q-1.05 0-3.2.95-.4.2-1.05.3l-.55.1h-.5l-.25-.05v5.75q.25.05.35.55l.4.8q.7 1.4 1.35 1.9l1.1.6 1.65.35L.65 5.5 3 5.1l.3-.05q5.8-1.85 2-8l-.75-.95" transform="translate(6.65 5.7)"/><path d="M.35-4.9q3.25.15 5 3.15 1.4 4-1.05 5.9-5.6 1.7-8.1-.2-1.6-1.2-2.6-4.75l-.15-.15v-2.4l2.7-.8q2.7-.85 4.2-.75" fill="#282828" transform="translate(6.65 5.7)"/><path d="M5.3-2.15q.35.9.3 1.6v1l-.15.95-.75 1.7-.55.6-.7.45-1 .2-3.2-.1-1.95-.3-1.5-.6q-.7-.5-.65-1.1h.4l.35-.3L-3 .1q.6-1.15.5-2.65 0-.5-.15-.7l-.25-.3q.25-.45 1.2-.7l1.6-.15 1.55.05 1.15.15 1.1.3.85.4.75 1.35" fill="#666" transform="translate(6.65 5.7)"/><path d="M3.25 2.1-1.2-4Q2.2-4.3 3-2.95q.85 1.3.7 3.3Q3.55 2 3 2.75l-.05.05.3-.7M-2.5-3.85l5.3 6.8-.95.3.1-.05-.1-.05-4.4-5.3L.8 3.4l-4.35-.2q-1-.35-1.6-2.45-.55-1.75-.4-2.9.1-1.3 3.05-1.7" fill="#020002" transform="translate(6.65 5.7)"/><path d="m-1.2-4 4.45 6.1-.2.65q-.5.4-.85.4l-4.7-7L-1.2-4m2 7.4-3.35-5.55 4.4 5.3.1.05-.1.05L.8 3.4" fill="#898888" transform="translate(6.65 5.7)"/><path d="m1.75-.15.25.4h-.05l-.9.6-.25.2-.25-.3-.45-.8-.15-.15-.1-.15.3-.15.3-.25L1-1.1l.1.15.65.8M.2 1.75-.05 2l-.1-.1-.15-.2-.45-.8L-.8.7l.1-.1.2-.3.45.6.6.6-.15.1-.2.15" fill="#b7b7b7" transform="translate(6.65 5.7)"/></g><g id="g" fill-rule="evenodd"><path d="m-.35-1.85.25.2.65.95.4 1q.3.7.2 1.1-.05.55-.85.4-.65-.1-1-.55l-.4-1.2v-.6L-.9-1l.55-.85" fill="#efa707" transform="translate(1.1 1.85)"/><path d="m0-1.4.1.05H.05l.4.55q.4.3.25.6L.25.35q-.2.25-.1.7Q-.6.8-.6-.1q0-1.3.6-1.3" fill="#f9d953" transform="translate(1.1 1.85)"/><path d="M.1-1.15h.1l-.05.05.15.5q-.2.4-.5.3l-.1-.5.4-.35" fill="#f9e8a2" transform="translate(1.1 1.85)"/></g></defs></svg>

<?xml version="1.0" encoding="UTF-8" standalone="no"?>
<svg xmlns:xlink="http://www.w3.org/1999/xlink" height="58.65px" width="49.15px" xmlns="http://www.w3.org/2000/svg">
  <g transform="matrix(1.0, 0.0, 0.0, 1.0, 24.1, 18.1)">
    <use height="14.2" transform="matrix(1.0, 0.0, 0.0, 1.0, -15.2, -3.4)" width="30.1" xlink:href="#sprite0"/>
  </g>
  <defs>
    <g id="sprite0" transform="matrix(1.0, 0.0, 0.0, 1.0, 14.85, 7.1)">
      <use height="5.35" transform="matrix(1.0, 0.0, 0.0, 1.0, 11.45, -3.9)" width="3.8" xlink:href="#sprite1"/>
      <use height="11.4" transform="matrix(1.0, 0.0, 0.0, 1.0, 9.65, -4.3)" width="5.6" xlink:href="#sprite3"/>
      <use height="11.25" transform="matrix(1.0, 0.0, 0.0, 1.0, -0.05, -7.1)" width="13.45" xlink:href="#sprite4"/>
      <use height="9.15" transform="matrix(1.0, 0.0, 0.0, 1.0, 10.95, -3.25)" width="3.45" xlink:href="#sprite5"/>
      <use height="3.7" transform="matrix(1.0, 0.0, 0.0, 1.0, 12.0, -2.9)" width="2.25" xlink:href="#sprite6"/>
      <use height="5.35" transform="matrix(-1.0, 0.0, 0.0, 1.0, -11.05, -3.9)" width="3.8" xlink:href="#sprite1"/>
      <use height="11.4" transform="matrix(-1.0, 0.0, 0.0, 1.0, -9.25, -4.3)" width="5.6" xlink:href="#sprite3"/>
      <use height="11.25" transform="matrix(-1.0, 0.0, 0.0, 1.0, 0.45, -7.1)" width="13.45" xlink:href="#sprite4"/>
      <use height="9.15" transform="matrix(-1.0, 0.0, 0.0, 1.0, -10.55, -3.25)" width="3.45" xlink:href="#sprite5"/>
      <use height="3.7" transform="matrix(-1.0, 0.0, 0.0, 1.0, -11.6, -2.9)" width="2.25" xlink:href="#sprite6"/>
    </g>
    <g id="sprite1" transform="matrix(1.0, 0.0, 0.0, 1.0, 1.9, 2.7)">
      <use height="5.35" transform="matrix(1.0, 0.0, 0.0, 1.0, -1.9, -2.7)" width="3.8" xlink:href="#sprite2"/>
    </g>
    <g id="sprite2" transform="matrix(1.0, 0.0, 0.0, 1.0, 1.9, 2.7)">
      <use height="5.35" transform="matrix(1.0, 0.0, 0.0, 1.0, -1.9, -2.7)" width="3.8" xlink:href="#shape0"/>
    </g>
    <g id="shape0" transform="matrix(1.0, 0.0, 0.0, 1.0, 1.9, 2.7)">
      <path d="M1.35 -0.2 L1.65 0.7 Q2.0 1.5 1.85 1.85 L1.65 2.2 1.35 2.65 0.95 2.65 Q-3.05 2.6 -1.45 -2.6 -0.05 -2.9 0.45 -2.0 L1.35 -0.2" fill="#000000" fill-rule="evenodd" stroke="none"/>
    </g>
    <g id="sprite3" transform="matrix(1.0, 0.0, 0.0, 1.0, 2.8, 5.7)">
      <use height="11.4" transform="matrix(1.0, 0.0, 0.0, 1.0, -2.8, -5.7)" width="5.6" xlink:href="#shape1"/>
    </g>
    <g id="shape1" transform="matrix(1.0, 0.0, 0.0, 1.0, 2.8, 5.7)">
      <path d="M2.6 0.35 L2.8 0.95 Q2.55 5.65 2.35 5.7 1.95 5.7 1.35 5.3 L0.75 4.65 0.2 4.05 -1.1 2.65 -1.9 2.25 -2.5 2.3 Q-3.65 -0.85 -0.5 -5.7 1.05 -3.6 2.6 0.35" fill="#000000" fill-rule="evenodd" stroke="none"/>
    </g>
    <g id="sprite4" transform="matrix(1.0, 0.0, 0.0, 1.0, 6.65, 5.7)">
      <use height="11.25" transform="matrix(1.0, 0.0, 0.0, 1.0, -6.65, -5.7)" width="13.45" xlink:href="#shape2"/>
    </g>
    <g id="shape2" transform="matrix(1.0, 0.0, 0.0, 1.0, 6.65, 5.7)">
      <path d="M4.55 -3.9 Q3.2 -5.6 0.35 -5.7 L-1.1 -5.7 Q-2.15 -5.7 -4.3 -4.75 -4.7 -4.55 -5.35 -4.45 L-5.9 -4.35 -6.4 -4.35 -6.65 -4.4 -6.65 1.35 Q-6.4 1.4 -6.3 1.9 L-5.9 2.7 Q-5.2 4.1 -4.55 4.6 L-3.45 5.2 -1.8 5.55 0.65 5.5 3.0 5.1 3.3 5.05 Q9.1 3.2 5.3 -2.95 L4.55 -3.9" fill="#000000" fill-rule="evenodd" stroke="none"/>
      <path d="M0.35 -4.9 Q3.6 -4.75 5.35 -1.75 6.75 2.25 4.3 4.15 -1.3 5.85 -3.8 3.95 -5.4 2.75 -6.4 -0.8 L-6.55 -0.95 -6.55 -3.35 -3.85 -4.15 Q-1.15 -5.0 0.35 -4.9" fill="#282828" fill-rule="evenodd" stroke="none"/>
      <path d="M5.3 -2.15 Q5.65 -1.25 5.6 -0.55 L5.6 0.45 5.45 1.4 4.7 3.1 4.15 3.7 3.45 4.15 2.45 4.35 -0.75 4.25 -2.7 3.95 -4.2 3.35 Q-4.9 2.85 -4.85 2.25 L-4.8 2.25 -4.45 2.25 -4.1 1.95 -3.0 0.1 Q-2.4 -1.05 -2.5 -2.55 -2.5 -3.05 -2.65 -3.25 L-2.9 -3.55 Q-2.65 -4.0 -1.7 -4.25 L-0.1 -4.4 1.45 -4.35 2.6 -4.2 3.7 -3.9 4.55 -3.5 5.3 -2.15" fill="#666666" fill-rule="evenodd" stroke="none"/>
      <path d="M3.25 2.1 L-1.2 -4.0 Q2.2 -4.3 3.0 -2.95 3.85 -1.65 3.7 0.35 3.55 2.0 3.0 2.75 L2.95 2.8 3.25 2.1" fill="#020002" fill-rule="evenodd" stroke="none"/>
      <path d="M-2.5 -3.85 L2.8 2.95 1.85 3.25 1.95 3.2 1.85 3.15 -2.55 -2.15 0.8 3.4 -3.55 3.2 Q-4.55 2.85 -5.15 0.75 -5.7 -1.0 -5.55 -2.15 -5.45 -3.45 -2.5 -3.85" fill="#020002" fill-rule="evenodd" stroke="none"/>
      <path d="M-1.2 -4.0 L3.25 2.1 3.05 2.75 Q2.55 3.15 2.2 3.15 L-2.5 -3.85 -1.2 -4.0" fill="#898888" fill-rule="evenodd" stroke="none"/>
      <path d="M0.8 3.4 L-2.55 -2.15 1.85 3.15 1.95 3.2 1.85 3.25 0.8 3.4" fill="#898888" fill-rule="evenodd" stroke="none"/>
      <path d="M1.75 -0.15 L2.0 0.25 1.95 0.25 1.05 0.85 0.8 1.05 0.55 0.75 0.1 -0.05 -0.05 -0.2 -0.15 -0.35 0.15 -0.5 0.45 -0.75 1.0 -1.1 1.1 -0.95 1.75 -0.15" fill="#b7b7b7" fill-rule="evenodd" stroke="none"/>
      <path d="M0.2 1.75 L-0.05 2.0 -0.15 1.9 -0.3 1.7 -0.75 0.9 -0.8 0.7 -0.7 0.6 -0.5 0.3 -0.05 0.9 0.55 1.5 0.4 1.6 0.2 1.75" fill="#b7b7b7" fill-rule="evenodd" stroke="none"/>
    </g>
    <g id="sprite5" transform="matrix(1.0, 0.0, 0.0, 1.0, 1.7, 4.55)">
      <use height="9.15" transform="matrix(1.0, 0.0, 0.0, 1.0, -1.7, -4.55)" width="3.45" xlink:href="#shape3"/>
    </g>
    <g id="shape3" transform="matrix(1.0, 0.0, 0.0, 1.0, 1.7, 4.55)">
      <path d="M-0.65 -4.55 L-0.4 -4.05 1.75 0.65 1.5 4.6 Q-0.65 1.4 -1.65 1.3 L-1.7 1.35 Q0.35 -0.55 -0.65 -4.55" fill="#282828" fill-rule="evenodd" stroke="none"/>
    </g>
    <g id="sprite6" transform="matrix(1.0, 0.0, 0.0, 1.0, 1.1, 1.85)">
      <use height="3.7" transform="matrix(1.0, 0.0, 0.0, 1.0, -1.1, -1.85)" width="2.25" xlink:href="#shape4"/>
    </g>
    <g id="shape4" transform="matrix(1.0, 0.0, 0.0, 1.0, 1.1, 1.85)">
      <path d="M-0.35 -1.85 L-0.1 -1.65 0.55 -0.7 0.95 0.3 Q1.25 1.0 1.15 1.4 1.1 1.95 0.3 1.8 -0.35 1.7 -0.7 1.25 L-1.1 0.05 -1.1 -0.55 -0.9 -1.0 -0.35 -1.85" fill="#efa707" fill-rule="evenodd" stroke="none"/>
      <path d="M0.0 -1.4 L0.1 -1.35 0.05 -1.35 0.45 -0.8 Q0.85 -0.5 0.7 -0.2 L0.25 0.35 Q0.05 0.6 0.15 1.05 -0.6 0.8 -0.6 -0.1 -0.6 -1.4 0.0 -1.4" fill="#f9d953" fill-rule="evenodd" stroke="none"/>
      <path d="M0.1 -1.15 L0.2 -1.15 0.15 -1.1 0.3 -0.6 Q0.1 -0.2 -0.2 -0.3 L-0.3 -0.8 0.1 -1.15" fill="#f9e8a2" fill-rule="evenodd" stroke="none"/>
    </g>
  </defs>
</svg>
